assets/2023/icons/slim_dark.svg

<svg width="16" height="16" viewBox="0 0 16 16" fill="none" xmlns="http://www.w3.org/2000/svg">
<rect x="2.5" y="2.5" width="11" height="11" rx="1.5" fill="#3D3223" stroke="#D6AE58"/>
<path d="M7.97557 11.5C7.4706 11.5 7.01351 11.4195 6.6043 11.2584C6.19945 11.0973 5.87514 10.8731 5.63135 10.5858C5.39193 10.2942 5.26351 9.96548 5.24609 9.59981H6.31046C6.32787 9.80006 6.41058 9.98072 6.55859 10.1418C6.7066 10.2985 6.9025 10.4226 7.14628 10.514C7.39006 10.6054 7.66214 10.6511 7.96251 10.6511C8.26724 10.6511 8.53496 10.6011 8.76568 10.5009C9.00076 10.4008 9.18142 10.2615 9.30766 10.083C9.43826 9.90454 9.50356 9.70211 9.50356 9.47575C9.50356 9.23197 9.4339 9.02736 9.2946 8.86194C9.15965 8.69216 8.97029 8.58551 8.7265 8.54198L7.11363 8.24813C6.59995 8.15236 6.19945 7.94559 5.91214 7.6278C5.62483 7.30566 5.48117 6.89863 5.48117 6.40672C5.48117 6.0541 5.58129 5.73414 5.78154 5.44683C5.98614 5.15516 6.27128 4.92444 6.63695 4.75466C7.00262 4.58489 7.42053 4.5 7.89068 4.5C8.35648 4.5 8.77657 4.57618 9.15094 4.72855C9.52532 4.88091 9.82352 5.09204 10.0455 5.36194C10.2675 5.63184 10.3873 5.93221 10.4047 6.26306H9.34031C9.32725 6.08893 9.25542 5.93221 9.12482 5.79291C8.99858 5.65361 8.8288 5.54478 8.6155 5.46642C8.40219 5.38806 8.16276 5.34888 7.89721 5.34888C7.62731 5.34888 7.38788 5.39459 7.17893 5.48601C6.96997 5.57743 6.80673 5.70367 6.68919 5.86474C6.57601 6.02146 6.51941 6.19994 6.51941 6.40019C6.51941 6.62655 6.58254 6.81374 6.70878 6.96175C6.83502 7.10976 7.02004 7.20554 7.26382 7.24907L8.91587 7.54291C9.25542 7.60386 9.54709 7.72357 9.79087 7.90205C10.039 8.08054 10.2262 8.30255 10.3524 8.5681C10.483 8.83364 10.5483 9.12313 10.5483 9.43657C10.5483 9.82836 10.4351 10.181 10.2088 10.4944C9.98676 10.8078 9.67986 11.0538 9.28807 11.2323C8.89628 11.4108 8.45878 11.5 7.97557 11.5Z" fill="#D6AE58"/>
</svg>

<svg xmlns="http://www.w3.org/2000/svg" width="16" height="16" fill="none" viewBox="0 0 16 16"><rect width="11" height="11" x="2.5" y="2.5" fill="#3D3223" stroke="#D6AE58" rx="1.5"/><path fill="#D6AE58" d="M7.976 11.5q-.757 0-1.372-.242a2.4 2.4 0 0 1-.973-.672 1.64 1.64 0 0 1-.385-.986H6.31q.026.3.249.542.222.235.587.372.366.137.817.137.456 0 .803-.15.352-.15.542-.418.196-.267.196-.607a.92.92 0 0 0-.21-.614.9.9 0 0 0-.568-.32l-1.612-.294q-.771-.143-1.202-.62-.43-.484-.43-1.221 0-.53.3-.96.307-.438.855-.692.549-.255 1.254-.255.698 0 1.26.229.562.228.895.633t.359.901H9.34a.76.76 0 0 0-.215-.47 1.26 1.26 0 0 0-.51-.327 2.1 2.1 0 0 0-.718-.117q-.405 0-.718.137a1.17 1.17 0 0 0-.49.379.9.9 0 0 0-.17.535q0 .34.19.562.189.222.555.287l1.652.294q.51.09.875.359.372.268.561.666.196.398.196.869 0 .587-.34 1.057-.332.471-.92.738a3.1 3.1 0 0 1-1.312.268"/></svg>
